img/manaSymbols/fab/fabr.svg

﻿<?xml version="1.0" encoding="utf-8"?>
<svg width="135" height="135" viewBox="0 0 135 135" version="1.1" xmlns="http://www.w3.org/2000/svg" xml:space="preserve" style="fill-rule: evenodd; clip-rule: evenodd; stroke-linejoin: round; stroke-miterlimit: 2;" preserveAspectRatio="xMidYMid meet" zoomAndPan="magnify" contentScriptType="application/ecmascript" contentStyleType="text/css">
  <g transform="matrix(1,0,0,1,-515,-818) matrix(1,0,0,1,1177,-1730.64) matrix(0.874126,0,0,0.874126,-1755.78,2447.87)">
    <circle cx="1328.5" cy="192.5" r="71.5" style="fill: rgb(196, 32, 37);" />
    <clipPath id="_clip1">
      <circle cx="1328.5" cy="192.5" r="71.5" />
    </clipPath>
    <g clip-path="url(#_clip1)">
      <path d="M1386.63 214.1c-73.69 50.042-105.37-9.66-103.15-46.674-14.26 13.757-17.85 34.204-5.97 54.584 14.15 24.278 66.68 50.12 109.12-7.91zM1259 225.588c-6.49-88.844 61.05-86.423 92-66-4.79-19.222-20.7-32.554-44.29-32.46-28.1.115-76.74 32.69-47.71 98.46zm53.87-116.277c80.18 38.804 44.32 96.085 11.16 112.676 19.04 5.464 38.54-1.65 50.25-22.125 13.95-24.39 10.06-82.807-61.41-90.55z" style="fill: rgb(8, 7, 10);" transform="matrix(0.866667,0,0,0.866667,184.933,33.9)" />
    </g>
    <path d="M1328.5 115.28c-42.62 0-77.22 34.6-77.22 77.22 0 42.62 34.6 77.22 77.22 77.22 42.62 0 77.22-34.6 77.22-77.22 0-42.62-34.6-77.22-77.22-77.22zm0 5.72c39.46 0 71.5 32.038 71.5 71.5s-32.04 71.5-71.5 71.5-71.5-32.038-71.5-71.5 32.04-71.5 71.5-71.5z" />
  </g>
</svg>

<?xml version="1.0" encoding="UTF-8" standalone="no"?>
<!DOCTYPE svg PUBLIC "-//W3C//DTD SVG 1.1//EN" "http://www.w3.org/Graphics/SVG/1.1/DTD/svg11.dtd">
<svg width="135" height="135" viewBox="0 0 135 135" version="1.1" xmlns="http://www.w3.org/2000/svg" xmlns:xlink="http://www.w3.org/1999/xlink" xml:space="preserve" xmlns:serif="http://www.serif.com/" style="fill-rule:evenodd;clip-rule:evenodd;stroke-linejoin:round;stroke-miterlimit:2;">
    <g transform="matrix(1,0,0,1,-515,-818)">
        <g transform="matrix(1,0,0,1,1177,-1730.64)">
            <g transform="matrix(0.874126,0,0,0.874126,-1755.78,2447.87)">
                <circle cx="1328.5" cy="192.5" r="71.5" style="fill:rgb(196,32,37);"/>
                <clipPath id="_clip1">
                    <circle cx="1328.5" cy="192.5" r="71.5"/>
                </clipPath>
                <g clip-path="url(#_clip1)">
                    <g transform="matrix(0.866667,0,0,0.866667,184.933,33.9)">
                        <path d="M1386.63,214.1C1312.94,264.142 1281.26,204.44 1283.48,167.426C1269.22,181.183 1265.63,201.63 1277.51,222.01C1291.66,246.288 1344.19,272.129 1386.63,214.1ZM1259,225.588C1252.51,136.744 1320.05,139.165 1351,159.588C1346.21,140.366 1330.3,127.034 1306.71,127.129C1278.61,127.243 1229.97,159.818 1259,225.588ZM1312.87,109.311C1393.05,148.114 1357.19,205.395 1324.03,221.986C1343.07,227.45 1362.57,220.336 1374.28,199.861C1388.23,175.469 1384.34,117.053 1312.87,109.311Z" style="fill:rgb(8,7,10);"/>
                    </g>
                </g>
                <path d="M1328.5,115.28C1285.88,115.28 1251.28,149.881 1251.28,192.5C1251.28,235.119 1285.88,269.72 1328.5,269.72C1371.12,269.72 1405.72,235.119 1405.72,192.5C1405.72,149.881 1371.12,115.28 1328.5,115.28ZM1328.5,121C1367.96,121 1400,153.038 1400,192.5C1400,231.962 1367.96,264 1328.5,264C1289.04,264 1257,231.962 1257,192.5C1257,153.038 1289.04,121 1328.5,121Z"/>
            </g>
        </g>
    </g>
</svg>
